public/images/logo/html.svg

<svg width="112" height="120" viewBox="0 0 112 120" fill="none" xmlns="http://www.w3.org/2000/svg">
<path d="M20.657 102.004L12.7925 7.5H99.2075L91.3325 101.989L55.9475 112.5L20.657 102.004Z" fill="#E44F26"/>
<path d="M56 104.468L84.595 95.9738L91.322 15.2288H56V104.468Z" fill="#F1662A"/>
<path d="M56 50.2762H41.685L40.698 38.4075H56V26.8162H28.875L29.134 29.9287L31.7905 61.8675H56V50.2762ZM56 80.3775L55.951 80.3925L43.904 76.9087L43.134 67.665H32.2735L33.789 85.86L55.951 92.4525L56 92.4375V80.3775Z" fill="#EBEBEB"/>
<path d="M55.9614 50.2762V61.8675H69.2824L68.0294 76.9012L55.9614 80.3887V92.4487L78.1409 85.86L78.3019 83.9025L80.8429 53.3887L81.1089 50.2762H55.9614ZM55.9614 26.8162V38.4075H82.0924L82.3094 35.805L82.8029 29.9287L83.0619 26.8162H55.9614Z" fill="white"/>
</svg>

<svg xmlns="http://www.w3.org/2000/svg" width="112" height="120" fill="none"><path fill="#E44F26" d="M20.657 102.004 12.793 7.5h86.414l-7.874 94.489L55.946 112.5l-35.29-10.496Z"/><path fill="#F1662A" d="m56 104.468 28.595-8.494 6.727-80.745H56v89.239Z"/><path fill="#EBEBEB" d="M56 50.276H41.685l-.987-11.869H56v-11.59H28.875l.259 3.112 2.657 31.939H56V50.276Zm0 30.101-.049.016-12.047-3.484-.77-9.244h-10.86l1.515 18.195 22.162 6.593.049-.016v-12.06Z"/><path fill="#fff" d="M55.961 50.276v11.591h13.321L68.03 76.901 55.961 80.39v12.06l22.18-6.589.16-1.957 2.542-30.514.266-3.113H55.96Zm0-23.46v11.591h26.131l.217-2.602.494-5.876.259-3.113h-27.1Z"/></svg>
